X: 39889
T: Thistle Schottische, The
R: barndance
M: 4/4
K: Gmajor
|:Bc|dGBG EG_EG|D6 Bc|d2 BG E2 FG|A6 BF|
AGEG D2 FG|A2 B2 c2 ^c2|dedB AGEF|G6:|
|:Bc|d6 cB|E6 FG|A2 ^GA dAGA|B6 BF|
AGEG D2 FG|A2 B2 c2 ^c2|d2 dB AGEF|G6:|
|:Bc|dgBd GBdB|ceAc EcAG|FAfe d2 cA|G2 BE D2 Bc|
d2 Bd G2 dB|c2 Ac E2 AG|FAfe dcEF|G2 B2 G2:|

